X:842
T:Sir David Hunter Blair
R:Reel
B:The Athole Collection
M:C|
L:1/8
K:F
a|~f2 cd cdcd|cf a2 cf a2|b2 ga gaga|gfef ge c:|
|:g|af ~f2 cfAc|FAcf eg ~g2|af ~f2 cfAc|FAcf ge ~f:|

